austria/municipalities/41421.svg

<?xml version="1.0" encoding="UTF-8"?>
<!DOCTYPE svg PUBLIC "-//W3C//DTD SVG 1.1//EN" "http://www.w3.org/Graphics/SVG/1.1/DTD/svg11.dtd">
<svg xmlns="http://www.w3.org/2000/svg" version="1.1" width="166px" height="207px" style="shape-rendering:geometricPrecision; text-rendering:geometricPrecision; image-rendering:optimizeQuality; fill-rule:evenodd; clip-rule:evenodd" xmlns:xlink="http://www.w3.org/1999/xlink">
<g><path style="opacity:1" fill="#000000" d="M -0.5,-0.5 C 54.8333,-0.5 110.167,-0.5 165.5,-0.5C 165.5,44.5 165.5,89.5 165.5,134.5C 161.239,157.511 149.906,176.344 131.5,191C 120.516,198.576 108.516,203.743 95.5,206.5C 86.8333,206.5 78.1667,206.5 69.5,206.5C 30.0336,197.035 6.70027,172.368 -0.5,132.5C -0.5,88.1667 -0.5,43.8333 -0.5,-0.5 Z"/></g>
<g><path style="opacity:1" fill="#cb0000" d="M 103.5,102.5 C 106.758,109.099 109.925,115.766 113,122.5C 120.391,129.89 128.391,136.557 137,142.5C 139.74,150.242 144.406,156.575 151,161.5C 150.509,164.99 149.009,168.157 146.5,171C 144.721,170.956 143.055,170.289 141.5,169C 138.11,163.004 134.443,157.171 130.5,151.5C 122.575,145.287 114.742,138.953 107,132.5C 103.476,126.256 100.143,119.923 97,113.5C 87.2924,104.824 77.6257,96.1571 68,87.5C 63.4774,80.4551 59.4774,73.1217 56,65.5C 53.8943,62.8823 51.3943,60.8823 48.5,59.5C 48.0472,58.5416 47.3805,57.7083 46.5,57C 39.2481,54.7377 33.4148,50.571 29,44.5C 25.6009,30.6159 17.4342,20.9492 4.5,15.5C 3.16667,11.5 3.16667,7.5 4.5,3.5C 19.4712,9.30363 29.4712,19.8036 34.5,35C 36.9845,38.318 39.6512,41.4847 42.5,44.5C 47.6682,47.9185 53.0016,51.0852 58.5,54C 65.5422,62.0408 71.3755,70.8742 76,80.5C 79.527,84.027 83.027,87.527 86.5,91C 92.8862,93.9064 98.5529,97.7397 103.5,102.5 Z"/></g>
<g><path style="opacity:1" fill="#fefffe" d="M 58.5,36.5 C 70.7685,50.9419 83.2685,65.2753 96,79.5C 106.722,91.0524 117.555,102.386 128.5,113.5C 134.45,122.117 141.45,129.784 149.5,136.5C 152.262,140.439 155.262,144.272 158.5,148C 156.793,152.277 154.793,156.443 152.5,160.5C 146.138,155.454 141.471,149.12 138.5,141.5C 130.856,135.69 123.356,129.69 116,123.5C 112.054,118.008 109.054,112.008 107,105.5C 106.241,103.937 105.074,102.937 103.5,102.5C 102.118,99.6057 100.118,97.1057 97.5,95C 91.7617,92.3781 86.5951,88.8781 82,84.5C 75.9056,76.6423 70.5723,68.309 66,59.5C 60.9859,53.4107 54.8192,48.9107 47.5,46C 38.8292,39.5058 32.9959,31.0058 30,20.5C 24.6008,13.7145 18.1008,8.21447 10.5,4C 16.5276,3.16973 22.5276,3.33639 28.5,4.5C 38.2328,15.5614 48.2328,26.228 58.5,36.5 Z"/></g>
<g><path style="opacity:1" fill="#006632" d="M 149.5,136.5 C 143.55,127.883 136.55,120.216 128.5,113.5C 123.255,106.711 117.755,100.044 112,93.5C 94.2506,74.256 76.4173,55.256 58.5,36.5C 49.5843,25.5766 40.2509,14.9099 30.5,4.5C 55.1577,3.50024 79.8243,3.16691 104.5,3.5C 104.333,24.8359 104.5,46.1693 105,67.5C 123.757,68.4927 142.59,68.826 161.5,68.5C 161.667,91.5024 161.5,114.502 161,137.5C 160.333,140.167 159.667,142.833 159,145.5C 155.917,142.246 152.751,139.246 149.5,136.5 Z"/></g>
<g><path style="opacity:1" fill="#fefffe" d="M 106.5,3.5 C 109.572,3.18259 112.572,3.51592 115.5,4.5C 112.772,14.519 109.939,24.519 107,34.5C 106.5,24.172 106.334,13.8387 106.5,3.5 Z"/></g>
<g><path style="opacity:1" fill="#fefffe" d="M 118.5,3.5 C 123.544,3.17252 128.544,3.50585 133.5,4.5C 131.455,13.0222 128.955,21.3555 126,29.5C 123.436,20.8473 120.936,12.1806 118.5,3.5 Z"/></g>
<g><path style="opacity:1" fill="#fefffe" d="M 136.5,4.5 C 141.65,3.34926 146.984,3.18259 152.5,4C 150.214,12.5274 147.714,21.0274 145,29.5C 142.002,21.1533 139.169,12.82 136.5,4.5 Z"/></g>
<g><path style="opacity:1" fill="#fefffe" d="M 155.5,3.5 C 157.5,3.5 159.5,3.5 161.5,3.5C 161.666,9.84209 161.5,16.1754 161,22.5C 158.724,16.2832 156.891,9.94983 155.5,3.5 Z"/></g>
<g><path style="opacity:1" fill="#003266" d="M 116.5,5.5 C 119.762,15.1299 122.762,24.9633 125.5,35C 122.667,44.8333 119.833,54.6667 117,64.5C 114.241,54.6279 111.408,44.7946 108.5,35C 111.566,25.2345 114.232,15.4012 116.5,5.5 Z"/></g>
<g><path style="opacity:1" fill="#003266" d="M 134.5,6.5 C 138.63,15.2299 141.63,24.5633 143.5,34.5C 141.59,44.3884 138.923,54.055 135.5,63.5C 132.077,54.055 129.41,44.3884 127.5,34.5C 129.841,25.1483 132.174,15.8149 134.5,6.5 Z"/></g>
<g><path style="opacity:1" fill="#003266" d="M 153.5,6.5 C 156.767,15.5519 159.433,24.8853 161.5,34.5C 159.51,44.3023 157.01,53.9689 154,63.5C 150.702,53.9746 147.868,44.3079 145.5,34.5C 148.043,25.1117 150.709,15.7784 153.5,6.5 Z"/></g>
<g><path style="opacity:1" fill="#fefffe" d="M 48.5,59.5 C 50.7655,62.6075 53.2655,65.6075 56,68.5C 58.9306,77.4498 63.5973,85.4498 70,92.5C 78.1121,98.8109 85.9455,105.478 93.5,112.5C 97.9396,119.622 102.106,126.956 106,134.5C 111.886,139.387 118.053,143.887 124.5,148C 130.263,153.095 134.429,159.261 137,166.5C 139.205,169.04 141.705,171.207 144.5,173C 143.042,175.46 141.209,177.627 139,179.5C 134.917,175.247 130.751,171.247 126.5,167.5C 124.518,163.854 121.851,160.854 118.5,158.5C 100.925,138.416 83.092,118.416 65,98.5C 60.9173,94.2473 56.7507,90.2473 52.5,86.5C 36.9159,68.2422 20.9159,50.2422 4.5,32.5C 3.16667,27.5 3.16667,22.5 4.5,17.5C 16.6882,22.5163 24.1882,31.5163 27,44.5C 29.0455,47.4233 31.2121,50.2567 33.5,53C 38.4171,55.4326 43.4171,57.5992 48.5,59.5 Z"/></g>
<g><path style="opacity:1" fill="#006632" d="M 52.5,86.5 C 68.7694,105.276 85.2694,123.942 102,142.5C 107.303,148.182 112.803,153.516 118.5,158.5C 120.482,162.146 123.149,165.146 126.5,167.5C 129.931,172.107 133.597,176.607 137.5,181C 112.932,202.647 84.9321,208.314 53.5,198C 26.6973,185.857 10.1973,165.357 4,136.5C 3.33333,102.5 3.33333,68.5 4,34.5C 20.0547,52.0507 36.2214,69.384 52.5,86.5 Z"/></g>
<g><path style="opacity:1" fill="#fefffe" d="M 106.5,35.5 C 110.072,45.5623 113.072,55.8957 115.5,66.5C 112.5,66.5 109.5,66.5 106.5,66.5C 106.5,56.1667 106.5,45.8333 106.5,35.5 Z"/></g>
<g><path style="opacity:1" fill="#000000" d="M 58.5,36.5 C 76.4173,55.256 94.2506,74.256 112,93.5C 117.755,100.044 123.255,106.711 128.5,113.5C 117.555,102.386 106.722,91.0524 96,79.5C 83.2685,65.2753 70.7685,50.9419 58.5,36.5 Z"/></g>
<g><path style="opacity:1" fill="#fefffe" d="M 125.5,40.5 C 126.117,40.6107 126.617,40.944 127,41.5C 128.964,49.8637 131.464,58.0303 134.5,66C 129.177,66.4994 123.844,66.666 118.5,66.5C 121.087,57.8968 123.42,49.2301 125.5,40.5 Z"/></g>
<g><path style="opacity:1" fill="#fefffe" d="M 144.5,40.5 C 147.641,48.7613 150.308,57.2613 152.5,66C 147.167,66.6667 141.833,66.6667 136.5,66C 139.245,57.517 141.912,49.017 144.5,40.5 Z"/></g>
<g><path style="opacity:1" fill="#fefffe" d="M 160.5,47.5 C 161.49,53.6446 161.823,59.9779 161.5,66.5C 159.5,66.5 157.5,66.5 155.5,66.5C 157.038,60.1479 158.705,53.8146 160.5,47.5 Z"/></g>
<g><path style="opacity:1" fill="#000000" d="M 52.5,86.5 C 56.7507,90.2473 60.9173,94.2473 65,98.5C 83.092,118.416 100.925,138.416 118.5,158.5C 112.803,153.516 107.303,148.182 102,142.5C 85.2694,123.942 68.7694,105.276 52.5,86.5 Z"/></g>
<g><path style="opacity:1" fill="#000000" d="M 73.5,142.5 C 61.5547,130.051 49.7214,117.384 38,104.5C 37.5034,106.81 37.3367,109.143 37.5,111.5C 35.8333,111.5 34.1667,111.5 32.5,111.5C 31.4993,104.824 30.4993,98.157 29.5,91.5C 30.3333,91.1667 31.1667,90.8333 32,90.5C 37.4367,91.9342 42.9367,93.1008 48.5,94C 49.4231,96.0408 49.7564,98.2075 49.5,100.5C 47.1806,99.833 44.8473,99.6664 42.5,100C 55.3042,114.808 68.1375,129.641 81,144.5C 84.4778,146.773 88.3111,148.273 92.5,149C 96.2363,151.069 98.903,154.069 100.5,158C 99.7113,159.626 98.7113,161.126 97.5,162.5C 98.8334,163.62 99.3334,164.953 99,166.5C 95.0441,167.877 91.0441,168.21 87,167.5C 85.779,166.728 84.779,165.728 84,164.5C 81.0416,159.536 79.0416,154.203 78,148.5C 75.8733,146.886 74.3733,144.886 73.5,142.5 Z"/></g>
<g><path style="opacity:1" fill="#fe9900" d="M 31.5,92.5 C 37.1048,93.8231 42.7714,94.8231 48.5,95.5C 48.5,96.5 48.5,97.5 48.5,98.5C 44.8026,97.8195 41.1359,97.3195 37.5,97C 41.8679,101.033 45.8679,105.366 49.5,110C 48.6667,110.833 47.8333,111.667 47,112.5C 43.6573,108.327 40.1573,104.327 36.5,100.5C 35.6764,103.785 35.1764,107.118 35,110.5C 33.3443,104.579 32.1776,98.5792 31.5,92.5 Z"/></g>
<g><path style="opacity:1" fill="#000000" d="M 12.5,106.5 C 18.2945,108.646 24.2945,110.146 30.5,111C 31.4061,112.699 31.7394,114.533 31.5,116.5C 28.8857,116.295 26.5524,116.295 24.5,116.5C 37.6113,132.447 51.278,147.947 65.5,163C 71.727,163.959 76.8937,166.793 81,171.5C 82.2121,174.834 81.3788,177.334 78.5,179C 80.5268,180.396 80.8602,182.062 79.5,184C 75.5635,184.361 71.5635,184.194 67.5,183.5C 63.4186,177.768 60.5852,171.434 59,164.5C 45.9431,150.115 32.9431,135.782 20,121.5C 19.6667,123.5 19.3333,125.5 19,127.5C 17.3333,128.833 15.6667,128.833 14,127.5C 12.1574,120.499 11.6574,113.499 12.5,106.5 Z"/></g>
<g><path style="opacity:1" fill="#fe9900" d="M 13.5,109.5 C 19.0563,110.199 24.3896,111.532 29.5,113.5C 26.1667,113.833 22.8333,114.167 19.5,114.5C 23.6516,118.151 27.6516,121.984 31.5,126C 30.6667,126.833 29.8333,127.667 29,128.5C 24.9844,124.652 21.1511,120.652 17.5,116.5C 17.6791,119.612 17.3458,122.945 16.5,126.5C 14.5987,120.993 13.5987,115.327 13.5,109.5 Z"/></g>
<g><path style="opacity:1" fill="#fe9900" d="M 85.5,150.5 C 89.4529,155.462 93.4529,160.462 97.5,165.5C 96.9984,166.521 96.3317,166.688 95.5,166C 88.2506,157.923 80.9173,150.09 73.5,142.5C 66.9399,133.764 59.7732,125.43 52,117.5C 51.2155,115.714 50.0488,114.214 48.5,113C 49.1667,112.333 49.8333,112.333 50.5,113C 61.8512,125.934 73.5179,138.434 85.5,150.5 Z"/></g>
<g><path style="opacity:1" fill="#000000" d="M 128.5,113.5 C 136.55,120.216 143.55,127.883 149.5,136.5C 141.45,129.784 134.45,122.117 128.5,113.5 Z"/></g>
<g><path style="opacity:1" fill="#fe9900" d="M 67.5,167.5 C 71.1191,172.129 74.7858,176.796 78.5,181.5C 78.3333,181.833 78.1667,182.167 78,182.5C 63.3333,166.5 48.6667,150.5 34,134.5C 32.3983,132.631 31.3983,130.631 31,128.5C 42.7355,142.029 54.9021,155.029 67.5,167.5 Z"/></g>
<g><path style="opacity:1" fill="#fefffe" d="M -0.5,132.5 C 6.70027,172.368 30.0336,197.035 69.5,206.5C 46.1667,206.5 22.8333,206.5 -0.5,206.5C -0.5,181.833 -0.5,157.167 -0.5,132.5 Z"/></g>
<g><path style="opacity:1" fill="#fefffe" d="M 165.5,134.5 C 165.5,158.5 165.5,182.5 165.5,206.5C 142.167,206.5 118.833,206.5 95.5,206.5C 108.516,203.743 120.516,198.576 131.5,191C 149.906,176.344 161.239,157.511 165.5,134.5 Z"/></g>
<g><path style="opacity:1" fill="#fe9900" d="M 85.5,150.5 C 85.3691,149.624 85.7025,148.957 86.5,148.5C 90.9491,149.618 94.6158,151.951 97.5,155.5C 99.1713,158.372 98.5046,159.872 95.5,160C 92.6057,156.27 89.2724,153.103 85.5,150.5 Z"/></g>
<g><path style="opacity:1" fill="#fe9900" d="M 81.5,153.5 C 85.4966,156.971 89.1633,160.804 92.5,165C 90.1909,167.051 88.0243,166.884 86,164.5C 84.1885,160.884 82.6885,157.217 81.5,153.5 Z"/></g>
<g><path style="opacity:1" fill="#000000" d="M 118.5,158.5 C 121.851,160.854 124.518,163.854 126.5,167.5C 123.149,165.146 120.482,162.146 118.5,158.5 Z"/></g>
<g><path style="opacity:1" fill="#fe9900" d="M 67.5,167.5 C 67.3691,166.624 67.7025,165.957 68.5,165.5C 73.5139,166.69 77.1805,169.524 79.5,174C 79.4907,175.404 78.9907,176.57 78,177.5C 74.584,173.913 71.084,170.58 67.5,167.5 Z"/></g>
<g><path style="opacity:1" fill="#fe9900" d="M 62.5,169.5 C 65.7127,172.23 68.7127,175.23 71.5,178.5C 72.9501,179.85 73.6168,181.516 73.5,183.5C 71.4176,183.528 69.5843,182.861 68,181.5C 65.8784,177.637 64.0451,173.637 62.5,169.5 Z"/></g>
</svg>

<svg xmlns="http://www.w3.org/2000/svg" width="166" height="207" style="shape-rendering:geometricPrecision;text-rendering:geometricPrecision;image-rendering:optimizeQuality;fill-rule:evenodd;clip-rule:evenodd"><path style="opacity:1" d="M-.5-.5h166v135c-4.261 23.011-15.594 41.844-34 56.5-10.984 7.576-22.984 12.743-36 15.5h-26c-39.466-9.465-62.8-34.132-70-74V-.5z"/><path style="opacity:1" fill="#cb0000" d="M103.5 102.5a732.12 732.12 0 0 1 9.5 20 172.365 172.365 0 0 0 24 20c2.74 7.742 7.406 14.075 14 19-.491 3.49-1.991 6.657-4.5 9.5-1.779-.044-3.445-.711-5-2a222.248 222.248 0 0 0-11-17.5 1009.103 1009.103 0 0 1-23.5-19 365.497 365.497 0 0 1-10-19 12454.957 12454.957 0 0 1-29-26 175.577 175.577 0 0 1-12-22c-2.106-2.618-4.606-4.618-7.5-6-.453-.958-1.12-1.792-2-2.5-7.252-2.262-13.085-6.429-17.5-12.5-3.4-13.884-11.566-23.55-24.5-29-1.333-4-1.333-8 0-12 14.971 5.804 24.971 16.304 30 31.5a108.646 108.646 0 0 0 8 9.5 191.934 191.934 0 0 0 16 9.5A116.826 116.826 0 0 1 76 80.5L86.5 91c6.386 2.906 12.053 6.74 17 11.5z"/><path style="opacity:1" fill="#fefffe" d="M58.5 36.5a2206.872 2206.872 0 0 0 37.5 43 1588.902 1588.902 0 0 0 32.5 34 114.678 114.678 0 0 0 21 23 140.877 140.877 0 0 0 9 11.5 102.897 102.897 0 0 1-6 12.5c-6.362-5.046-11.029-11.38-14-19a580.713 580.713 0 0 1-22.5-18 63.292 63.292 0 0 1-9-18c-.759-1.563-1.926-2.563-3.5-3-1.382-2.894-3.382-5.394-6-7.5A56.156 56.156 0 0 1 82 84.5a163.955 163.955 0 0 1-16-25C60.986 53.41 54.82 48.91 47.5 46 38.83 39.506 32.996 31.006 30 20.5 24.6 13.714 18.1 8.214 10.5 4a54.56 54.56 0 0 1 18 .5 689.943 689.943 0 0 0 30 32z"/><path style="opacity:1" fill="#006632" d="M149.5 136.5a114.678 114.678 0 0 0-21-23 408.03 408.03 0 0 0-16.5-20 4463.501 4463.501 0 0 0-53.5-57 623.607 623.607 0 0 0-28-32c24.658-1 49.324-1.333 74-1-.167 21.336 0 42.67.5 64a805.889 805.889 0 0 0 56.5 1c.167 23.002 0 46.002-.5 69l-2 8a117.932 117.932 0 0 0-9.5-9z"/><path style="opacity:1" fill="#fefffe" d="M106.5 3.5a21.12 21.12 0 0 1 9 1 1518.936 1518.936 0 0 1-8.5 30 481.169 481.169 0 0 1-.5-31zM118.5 3.5a57.123 57.123 0 0 1 15 1 231.863 231.863 0 0 1-7.5 25 1867.273 1867.273 0 0 1-7.5-26zM136.5 4.5c5.15-1.15 10.484-1.317 16-.5a552.802 552.802 0 0 1-7.5 25.5 767.368 767.368 0 0 1-8.5-25zM155.5 3.5h6c.166 6.342 0 12.675-.5 19a142.72 142.72 0 0 1-5.5-19z"/><path style="opacity:1" fill="#003266" d="M116.5 5.5a511.606 511.606 0 0 1 9 29.5L117 64.5a1908.318 1908.318 0 0 0-8.5-29.5 386.667 386.667 0 0 0 8-29.5zM134.5 6.5c4.13 8.73 7.13 18.063 9 28a191.656 191.656 0 0 1-8 29 191.656 191.656 0 0 1-8-29c2.341-9.352 4.674-18.685 7-28zM153.5 6.5a216.272 216.272 0 0 1 8 28 283.578 283.578 0 0 1-7.5 29 313.396 313.396 0 0 1-8.5-29 1052.225 1052.225 0 0 1 8-28z"/><path style="opacity:1" fill="#fefffe" d="M48.5 59.5a91.966 91.966 0 0 0 7.5 9c2.93 8.95 7.597 16.95 14 24a351.713 351.713 0 0 1 23.5 20 312.665 312.665 0 0 1 12.5 22 183.074 183.074 0 0 0 18.5 13.5c5.763 5.095 9.929 11.261 12.5 18.5a34.706 34.706 0 0 0 7.5 6.5 25.55 25.55 0 0 1-5.5 6.5 207.984 207.984 0 0 0-12.5-12c-1.982-3.646-4.649-6.646-8-9a4328.277 4328.277 0 0 0-53.5-60 208.172 208.172 0 0 0-12.5-12 1804.703 1804.703 0 0 0-48-54c-1.333-5-1.333-10 0-15 12.188 5.016 19.688 14.016 22.5 27a126.48 126.48 0 0 0 6.5 8.5c4.917 2.433 9.917 4.6 15 6.5z"/><path style="opacity:1" fill="#006632" d="M52.5 86.5a3800.773 3800.773 0 0 0 49.5 56 227.23 227.23 0 0 0 16.5 16c1.982 3.646 4.649 6.646 8 9a201.815 201.815 0 0 0 11 13.5c-24.568 21.647-52.568 27.314-84 17-26.803-12.143-43.303-32.643-49.5-61.5-.667-34-.667-68 0-102a3662.19 3662.19 0 0 0 48.5 52z"/><path style="opacity:1" fill="#fefffe" d="M106.5 35.5a278.15 278.15 0 0 1 9 31h-9v-31z"/><path style="opacity:1" d="M58.5 36.5a4463.501 4463.501 0 0 1 53.5 57 408.03 408.03 0 0 1 16.5 20 1588.902 1588.902 0 0 1-32.5-34 2206.872 2206.872 0 0 1-37.5-43z"/><path style="opacity:1" fill="#fefffe" d="M125.5 40.5c.617.11 1.117.444 1.5 1a192.109 192.109 0 0 0 7.5 24.5c-5.323.5-10.656.666-16 .5a462.567 462.567 0 0 0 7-26zM144.5 40.5a227.286 227.286 0 0 1 8 25.5 64.247 64.247 0 0 1-16 0 1488.25 1488.25 0 0 0 8-25.5zM160.5 47.5c.99 6.145 1.323 12.478 1 19h-6a498.598 498.598 0 0 1 5-19z"/><path style="opacity:1" d="M52.5 86.5a208.172 208.172 0 0 1 12.5 12 4328.277 4328.277 0 0 1 53.5 60 227.23 227.23 0 0 1-16.5-16 3800.773 3800.773 0 0 1-49.5-56zM73.5 142.5a1957.255 1957.255 0 0 1-35.5-38 24.939 24.939 0 0 0-.5 7h-5c-1-6.676-2-13.343-3-20l2.5-1A172.645 172.645 0 0 0 48.5 94c.923 2.04 1.256 4.207 1 6.5a16.603 16.603 0 0 0-7-.5c12.804 14.808 25.638 29.641 38.5 44.5 3.478 2.273 7.311 3.773 11.5 4.5 3.736 2.069 6.403 5.069 8 9a19.933 19.933 0 0 1-3 4.5c1.333 1.12 1.833 2.453 1.5 4-3.956 1.377-7.956 1.71-12 1a9.568 9.568 0 0 1-3-3 47.767 47.767 0 0 1-6-16c-2.127-1.614-3.627-3.614-4.5-6z"/><path style="opacity:1" fill="#fe9900" d="M31.5 92.5a151.113 151.113 0 0 0 17 3v3c-3.697-.68-7.364-1.18-11-1.5a110.197 110.197 0 0 1 12 13l-2.5 2.5a182.5 182.5 0 0 0-10.5-12 52.204 52.204 0 0 0-1.5 10 113.365 113.365 0 0 1-3.5-18z"/><path style="opacity:1" d="M12.5 106.5a85.058 85.058 0 0 0 18 4.5c.906 1.699 1.24 3.533 1 5.5-2.614-.205-4.948-.205-7 0a899.678 899.678 0 0 0 41 46.5c6.227.959 11.394 3.793 15.5 8.5 1.212 3.334.379 5.834-2.5 7.5 2.027 1.396 2.36 3.062 1 5-3.936.361-7.936.194-12-.5-4.081-5.732-6.915-12.066-8.5-19a74407.987 74407.987 0 0 1-39-43l-1 6c-1.667 1.333-3.333 1.333-5 0-1.843-7.001-2.343-14.001-1.5-21z"/><path style="opacity:1" fill="#fe9900" d="M13.5 109.5c5.556.699 10.89 2.032 16 4l-10 1a194.64 194.64 0 0 1 12 11.5l-2.5 2.5a194.56 194.56 0 0 1-11.5-12c.18 3.112-.154 6.445-1 10a54.6 54.6 0 0 1-3-17zM85.5 150.5c3.953 4.962 7.953 9.962 12 15-.502 1.021-1.168 1.188-2 .5a758.555 758.555 0 0 0-22-23.5 251.022 251.022 0 0 0-21.5-25 11.529 11.529 0 0 0-3.5-4.5c.667-.667 1.333-.667 2 0a832.752 832.752 0 0 0 35 37.5z"/><path style="opacity:1" d="M128.5 113.5a114.678 114.678 0 0 1 21 23 114.678 114.678 0 0 1-21-23z"/><path style="opacity:1" fill="#fe9900" d="M67.5 167.5c3.62 4.629 7.286 9.296 11 14l-.5 1-44-48c-1.602-1.869-2.602-3.869-3-6a703.397 703.397 0 0 0 36.5 39z"/><path style="opacity:1" fill="#fefffe" d="M-.5 132.5c7.2 39.868 30.534 64.535 70 74h-70v-74zM165.5 134.5v72h-70c13.016-2.757 25.016-7.924 36-15.5 18.406-14.656 29.739-33.489 34-56.5z"/><path style="opacity:1" fill="#fe9900" d="M85.5 150.5c-.13-.876.203-1.543 1-2 4.45 1.118 8.116 3.451 11 7 1.671 2.872 1.005 4.372-2 4.5-2.894-3.73-6.228-6.897-10-9.5zM81.5 153.5a86.497 86.497 0 0 1 11 11.5c-2.31 2.051-4.476 1.884-6.5-.5a76.685 76.685 0 0 1-4.5-11z"/><path style="opacity:1" d="M118.5 158.5c3.351 2.354 6.018 5.354 8 9-3.351-2.354-6.018-5.354-8-9z"/><path style="opacity:1" fill="#fe9900" d="M67.5 167.5c-.13-.876.203-1.543 1-2 5.014 1.19 8.68 4.024 11 8.5-.01 1.404-.51 2.57-1.5 3.5a145.17 145.17 0 0 0-10.5-10zM62.5 169.5a79.23 79.23 0 0 1 9 9c1.45 1.35 2.117 3.016 2 5-2.082.028-3.916-.639-5.5-2a91.125 91.125 0 0 1-5.5-12z"/></svg>
